suite-common/icons/assets/icons/new.svg

<svg xmlns="http://www.w3.org/2000/svg" xml:space="preserve" style="fill-rule:evenodd;clip-rule:evenodd;stroke-linejoin:round;stroke-miterlimit:2" viewBox="0 0 48 48">
  <path d="M22.44 5.569c-4.346.452-8.065 2.241-11.023 5.304-2.604 2.696-4.171 5.892-4.751 9.687-.191 1.255-.191 3.625 0 4.88.572 3.745 2.131 6.954 4.666 9.602 4.771 4.986 11.805 6.714 18.348 4.509 1.82-.613 3.972-1.824 5.48-3.084 3.376-2.819 5.497-6.609 6.173-11.027.193-1.256.193-3.624 0-4.88-.581-3.797-2.148-6.993-4.75-9.687-2.647-2.74-5.889-4.457-9.663-5.118-.931-.163-3.625-.275-4.48-.186m3.223 2.036c3.568.39 6.754 1.922 9.301 4.47 5.451 5.458 6.042 14.068 1.39 20.266-3.736 4.978-10.179 7.22-16.247 5.656-7.191-1.855-12.078-8.648-11.549-16.055.401-5.599 3.646-10.414 8.67-12.863a15.47 15.47 0 0 1 8.435-1.474m-2.127 7.649c-.529.261-.533.287-.56 3.686L22.953 22h-3.004c-3.309 0-3.378.009-3.661.487a1.02 1.02 0 0 0 0 1.026c.283.478.352.487 3.661.487h3.004l.023 3.06c.021 2.705.04 3.089.16 3.309.144.262.565.511.864.511.294 0 .678-.228.844-.501.146-.243.157-.447.18-3.319l.023-3.06h3.004c3.309 0 3.378-.009 3.661-.487a1.02 1.02 0 0 0 0-1.026c-.283-.478-.352-.487-3.661-.487h-3.004l-.023-3.06c-.023-2.872-.034-3.076-.18-3.319-.169-.278-.553-.502-.856-.499a1.3 1.3 0 0 0-.452.132"/>
</svg>

<svg xmlns="http://www.w3.org/2000/svg" xml:space="preserve" style="fill-rule:evenodd;clip-rule:evenodd;stroke-linejoin:round;stroke-miterlimit:2" viewBox="0 0 48 48"><path d="M22.440 5.569 C 18.094 6.021,14.375 7.810,11.417 10.873 C 8.813 13.569,7.246 16.765,6.666 20.560 C 6.475 21.815,6.475 24.185,6.666 25.440 C 7.238 29.185,8.797 32.394,11.332 35.042 C 16.103 40.028,23.137 41.756,29.680 39.551 C 31.500 38.938,33.652 37.727,35.160 36.467 C 38.536 33.648,40.657 29.858,41.333 25.440 C 41.526 24.184,41.526 21.816,41.333 20.560 C 40.752 16.763,39.185 13.567,36.583 10.873 C 33.936 8.133,30.694 6.416,26.920 5.755 C 25.989 5.592,23.295 5.480,22.440 5.569 M25.663 7.605 C 29.231 7.995,32.417 9.527,34.964 12.075 C 40.415 17.533,41.006 26.143,36.354 32.341 C 32.618 37.319,26.175 39.561,20.107 37.997 C 12.916 36.142,8.029 29.349,8.558 21.942 C 8.959 16.343,12.204 11.528,17.228 9.079 C 19.843 7.804,22.784 7.290,25.663 7.605 M23.536 15.254 C 23.007 15.515,23.003 15.541,22.976 18.940 L 22.953 22.000 19.949 22.000 C 16.640 22.000,16.571 22.009,16.288 22.487 C 16.104 22.799,16.104 23.201,16.288 23.513 C 16.571 23.991,16.640 24.000,19.949 24.000 L 22.953 24.000 22.976 27.060 C 22.997 29.765,23.016 30.149,23.136 30.369 C 23.280 30.631,23.701 30.880,24.000 30.880 C 24.294 30.880,24.678 30.652,24.844 30.379 C 24.990 30.136,25.001 29.932,25.024 27.060 L 25.047 24.000 28.051 24.000 C 31.360 24.000,31.429 23.991,31.712 23.513 C 31.896 23.201,31.896 22.799,31.712 22.487 C 31.429 22.009,31.360 22.000,28.051 22.000 L 25.047 22.000 25.024 18.940 C 25.001 16.068,24.990 15.864,24.844 15.621 C 24.675 15.343,24.291 15.119,23.988 15.122 C 23.885 15.123,23.681 15.182,23.536 15.254 " stroke="none" fill-rule="evenodd" fill="black"></path></svg>
